X:1
T:Title
%%score ( 1 2 ) { 3 | 4 }
L:1/8
M:4/4
K:F
V:1 treble nm="Bright Piano"
V:2 treble 
V:3 treble nm="Bright Piano"
V:4 bass 
V:1
 z4 z2[Q:1/4=100] [FA]2 | [Ac]4 [GB]2 [EG]2 | F6 [FA]2 | [DG]2 [EG]2 [FG]2 [EG]2 | %4
 [FA]4 [Gc]2 [FA]2 | [EG]2 [CE]2 [DF]2 [=B,D]2 | C4 z4 | [GB]4 [GB][FA][Ac][FA] | [EG]6 [EA]2 | %9
 F2 [_EF]2 [DF]2 [EF]2 | F3 B [DB]2 [Fd]2 | [Fc]2 [FA]2 [GB]2 [EG]2 | F4 A2 B2 | [FA]4 [DG]4 | %14
 [CF]4 [CE]4 |[M:3/4] [CF]4 z2 |] %16
V:2
 x8 | x8 | x8 | x8 | x8 | x8 | x8 | x8 | x8 | x8 | D4 z4 | x8 | z4 F4 | x8 | x8 |[M:3/4] x6 |] %16
V:3
 z4 z2 C2 | C4 C2 B,2 | A,6 C2 | =B,2 C2 B,2 C2 | C4 C2 C2 | C2[K:bass] G,2 =B,2 G,F, | E,4 z4 | %7
 C4 C2 C2 | C6 A,2 | A,2 A,2 B,2 C2 | B,2 F,2 F,2 B,2 | A,2[K:treble] C2 C2 B,2 | A,4 C2 D2 | %13
 C4[K:bass] D2 B,2 | A,4 B,4 |[M:3/4] A,4 z2 |] %16
V:4
 z4 z2 F,2 | C,4 C,4 | F,6 F,2 | F,2 E,2 D,2 C,2 | F,4 E,2 F,2 | C,2 C,2 G,,2 G,,2 | C,4 z4 | %7
 E,4 F,2 F,2 | C,6 ^C,2 | D,2 C,2 B,,2 A,,2 | B,,4 B,,2 B,,2 | F,2 F,2 C,2 C,2 | F,4 F,4 | %13
 F,4 B,,4 | C,4 C,4 |[M:3/4] F,4 z2 |] %16

